!!!COM: Aaron Copland
!!!OTL: [T703_Cop-w3p8m4-1h6m1]
**kern	**dynam	**kern	**dynam	**kern	**dynam	**kern	**dynam	**kern	**dynam	**kern	**kern	**dynam	**kern	**dynam	**kern	**dynam	**kern	**dynam	**kern	**dynam	**kern	**dynam	**kern	**dynam
*grp:A	*grp:A	*grp:A	*grp:A	*grp:A	*grp:A	*grp:A	*grp:A	*grp:A	*grp:A	*grp:A	*grp:A	*grp:A	*grp:A	*grp:A	*grp:A	*grp:A	*grp:A	*grp:A	*grp:A	*grp:A	*grp:B	*grp:B	*grp:B	*grp:B
*part12	*part12	*part11	*part11	*part10	*part10	*part9	*part9	*part8	*part8	*part7	*part7	*part7	*part6	*part6	*part5	*part5	*part4	*part4	*part3	*part3	*part2	*part2	*part1	*part1
*staff13	*staff13	*staff12	*staff12	*staff11	*staff11	*staff10	*staff10	*staff9	*staff9	*staff8	*staff7	*staff7	*staff6	*staff6	*staff5	*staff5	*staff4	*staff4	*staff3	*staff3	*staff2	*staff2	*staff1	*staff1
*I"Contrabass	*I"Contrabass	*I"Violoncello	*I"Violoncello	*I"Viola	*I"Viola	*I"Violin II	*I"Violin II	*I"Violin I	*I"Violin I	*I"Piano	*I"Piano	*I"Piano	*I"Bass Drum	*I"Bass Drum	*I"Snare Drum	*I"Snare Drum	*I"Trumpet I in C	*I"Trumpet I in C	*I"Bassoon	*I"Bassoon	*I"Clarinet in Eb	*I"Clarinet in Eb	*I"Piccolo	*I"Piccolo
*I'Cb.	*	*I'Vc.	*	*I'Vla.	*	*I'Vln. II	*	*I'Vln. I	*	*I'Pno.	*	*	*I'Perc.	*	*I'Perc.	*	*I'C Tpt.	*	*I'Bsn.	*	*I'Eb Cl.	*	*I'Picc.	*
*	*	*	*	*	*	*	*	*	*	*	*	*	*stria1	*	*stria1	*	*	*	*	*	*	*	*	*
*clefF4	*	*clefF4	*	*clefC3	*	*clefG2	*	*clefG2	*	*clefF4	*clefG2	*	*clefX	*	*clefX	*	*clefG2	*	*clefF4	*	*clefG2	*	*clefG2	*
*ITrd7c12	*	*	*	*	*	*	*	*	*	*	*	*	*	*	*	*	*	*	*	*	*ITrd-2c-3	*	*ITrd-7c-12	*
*k[]	*	*k[]	*	*k[]	*	*k[]	*	*k[]	*	*k[]	*k[]	*	*k[]	*	*k[]	*	*k[]	*	*k[]	*	*k[b-e-a-]	*	*k[]	*
*	*	*	*	*	*	*	*	*	*	*	*	*	*C:	*	*C:	*	*	*	*	*	*	*	*	*
*M3/4	*	*M3/4	*	*M3/4	*	*M3/4	*	*M3/4	*	*M3/4	*M3/4	*	*M3/4	*	*M3/4	*	*M3/4	*	*M3/4	*	*M3/4	*	*M3/4	*
=1	=1	=1	=1	=1	=1	=1	=1	=1	=1	=1	=1	=1	=1	=1	=1	=1	=1	=1	=1	=1	=1	=1	=1	=1
.	.	.	.	.	.	.	.	.	.	.	.	.	.	.	16ryy	.	.	.	.	.	.	.	.	.
.	.	.	.	.	.	.	.	.	.	.	.	.	.	.	16ryy	.	.	.	.	.	.	.	.	.
!LO:TX:b:t=[(accents very strongly marked)]	!	!	!	!	!	!	!	!LO:TX:a:t=pizz.	!	!	!	!	!	!	!	!	!	!	!	!	!	!	!	!
!LO:TX:a:t=pizz.	!	!LO:TX:a:t=pizz.	!	!LO:TX:a:t=pizz.	!	!LO:TX:a:t=pizz.	!	!LO:TX:a:t=[VL 1, VL 2, Violas very strong accent on second beat throughout]	!	!	!	!	!	!	!	!LO:DY:ed=brack	!	!	!	!LO:DY:ed=brack	!	!LO:DY:ed=brack	!	!
.	.	.	.	.	.	.	.	.	.	.	.	.	.	.	16ryy	.	.	.	.	.	.	.	.	.
!	!LO:DY:ed=brack	!	!LO:DY:ed=brack	!	!LO:DY:ed=brack	!	!LO:DY:ed=brack	!	!LO:DY:ed=brack	!	!	!LO:DY:ed=brack	!	!	!	!LO:DY:ed=brack	!	!	!	!	!	!	!	!
8ryy	4ryy	8ryy	4ryy	8ryy	4ryy	8ryy	4ryy	8ryy	4ryy	8ryy	8ryy	4ryy	4%3ryy	.	8ryy	4ryy	4%3ryy	.	8ryy	4ryy	8eeXL	ff	8r	.
!	!	!	!	!	!	!	!	!	!	!	!	!	!	!	!	!	!	!	!	!	!	!	!	!LO:DY:ed=brack
8ryy	.	8ryy	.	8ryy	.	8ryy	.	8ryy	.	8ryy	8ryy	.	.	.	8ryy	.	.	.	8ryy	.	8bX'J	.	8bb'	f
4ryy	.	8ryy	.	8ryy	.	8ryy	.	8ryy	.	8ryy	8ryy	.	.	.	8ryy	.	.	.	4ryy	.	8ee^	.	8eee^L	.
.	.	8ryy	.	8ryy	.	8ryy	.	8ryy	.	8ryy	8ryy	.	.	.	8ryy	.	.	.	.	.	4ee~	.	8eee'J	.
8ryy	.	8ryy	.	8ryy	.	8ryy	.	8ryy	.	8ryy	8ryy	.	.	.	8ryy	.	.	.	8ryy	.	.	.	8r	.
8ryy	.	8ryy	.	8ryy	.	8ryy	.	8ryy	.	8ryy	8ryy	.	.	.	8ryy	.	.	.	8ryy	.	8b'	.	8bb'	.
=2	=2	=2	=2	=2	=2	=2	=2	=2	=2	=2	=2	=2	=2	=2	=2	=2	=2	=2	=2	=2	=2	=2	=2	=2
.	.	.	.	.	.	.	.	.	.	.	.	.	.	.	16ryy	.	.	.	.	.	.	.	.	.
.	.	.	.	.	.	.	.	.	.	.	.	.	.	.	16ryy	.	.	.	.	.	.	.	.	.
.	.	.	.	.	.	.	.	.	.	.	.	.	.	.	16ryy	.	.	.	.	.	.	.	.	.
8ryy	.	8ryy	.	8ryy	.	8ryy	.	8ryy	.	8ryy	8ryy	.	4%3ryy	.	8ryy	.	4%3ryy	.	8ryy	.	8eeX^L	.	8eee^L	.
8ryy	.	8ryy	.	8ryy	.	8ryy	.	8ryy	.	8ryy	8ryy	.	.	.	8ryy	.	.	.	8ryy	.	8bX'J	.	8bb'J	.
4ryy	.	8ryy	.	8ryy	.	8ryy	.	8ryy	.	8ryy	8ryy	.	.	.	8ryy	.	.	.	4ryy	.	8ee'	.	8eee'	.
.	.	8ryy	.	8ryy	.	8ryy	.	8ryy	.	8ryy	8ryy	.	.	.	8ryy	.	.	.	.	.	4ee^	.	4eee^	.
8ryy	.	8ryy	.	8ryy	.	8ryy	.	8ryy	.	8ryy	8ryy	.	.	.	8ryy	.	.	.	8ryy	.	.	.	.	.
8ryy	.	8ryy	.	8ryy	.	8ryy	.	8ryy	.	8ryy	8ryy	.	.	.	8ryy	.	.	.	8ryy	.	[8ee^	.	[8eee^	.
=3	=3	=3	=3	=3	=3	=3	=3	=3	=3	=3	=3	=3	=3	=3	=3	=3	=3	=3	=3	=3	=3	=3	=3	=3
.	.	.	.	.	.	.	.	.	.	.	.	.	.	.	16ryy	.	.	.	.	.	.	.	.	.
.	.	.	.	.	.	.	.	.	.	.	.	.	.	.	16ryy	.	.	.	.	.	.	.	.	.
.	.	.	.	.	.	.	.	.	.	.	.	.	.	.	16ryy	.	.	.	.	.	.	.	.	.
8ryy	.	8ryy	.	8ryy	.	8ryy	.	8ryy	.	8ryy	8ryy	.	4%3ryy	.	8ryy	.	4%3ryy	.	8ryy	.	4ee_	.	4eee_	.
8ryy	.	8ryy	.	8ryy	.	8ryy	.	8ryy	.	8ryy	8ryy	.	.	.	8ryy	.	.	.	8ryy	.	.	.	.	.
4ryy	.	8ryy	.	8ryy	.	8ryy	.	8ryy	.	8ryy	8ryy	.	.	.	8ryy	.	.	.	4ryy	.	8eeL]	.	8eeeL]	.
.	.	8ryy	.	8ryy	.	8ryy	.	8ryy	.	8ryy	8ryy	.	.	.	8ryy	.	.	.	.	.	8aX'J	.	8aa'J	.
8ryy	.	8ryy	.	8ryy	.	8ryy	.	8ryy	.	8ryy	8ryy	.	.	.	8ryy	.	.	.	8ryy	.	[4ff#X~	.	[4fff#X~	.
8ryy	.	8ryy	.	8ryy	.	8ryy	.	8ryy	.	8ryy	8ryy	.	.	.	8ryy	.	.	.	8ryy	.	.	.	.	.
=4	=4	=4	=4	=4	=4	=4	=4	=4	=4	=4	=4	=4	=4	=4	=4	=4	=4	=4	=4	=4	=4	=4	=4	=4
.	.	.	.	.	.	.	.	.	.	.	.	.	.	.	16ryy	.	.	.	.	.	.	.	.	.
.	.	.	.	.	.	.	.	.	.	.	.	.	.	.	16ryy	.	.	.	.	.	.	.	.	.
.	.	.	.	.	.	.	.	.	.	.	.	.	.	.	16ryy	.	.	.	.	.	.	.	.	.
8ryy	.	8ryy	.	8ryy	.	8ryy	.	8ryy	.	8ryy	8ryy	.	4%3ryy	.	8ryy	.	4%3ryy	.	8ryy	.	4ff#]	.	4fff#]	.
8ryy	.	8ryy	.	8ryy	.	8ryy	.	8ryy	.	8ryy	8ryy	.	.	.	8ryy	.	.	.	8ryy	.	.	.	.	.
4ryy	.	8ryy	.	8ryy	.	8ryy	.	8ryy	.	8ryy	8ryy	.	.	.	8ryy	.	.	.	4ryy	.	2eeX~	.	2eee~	.
.	.	8ryy	.	8ryy	.	8ryy	.	8ryy	.	8ryy	8ryy	.	.	.	8ryy	.	.	.	.	.	.	.	.	.
8ryy	.	8ryy	.	8ryy	.	8ryy	.	8ryy	.	8ryy	8ryy	.	.	.	8ryy	.	.	.	8ryy	.	.	.	.	.
8ryy	.	8ryy	.	8ryy	.	8ryy	.	8ryy	.	8ryy	8ryy	.	.	.	8ryy	.	.	.	8ryy	.	.	.	.	.
!!LO:REH:t=6
=5	=5	=5	=5	=5	=5	=5	=5	=5	=5	=5	=5	=5	=5	=5	=5	=5	=5	=5	=5	=5	=5	=5	=5	=5
*M7/8	*	*M7/8	*	*M7/8	*	*M7/8	*	*M7/8	*	*M7/8	*M7/8	*	*M7/8	*	*M7/8	*	*M7/8	*	*M7/8	*	*M7/8	*	*M7/8	*
!LO:TX:a:t=pizz.	!	!LO:TX:a:t=arco	!	!	!	!	!	!	!	!	!	!	!	!	!	!	!LO:TX:a:rj:i:t=(Jazz)	!	!	!	!	!	!LO:TX:a:t=sempre [eighth] = [eighth]	!
!	!	!	!	!	!	!	!	!	!	!	!	!	!	!	!	!	!LO:TX:a:rj:i:t=con sord.	!	!	!	!	!	!	!
!	!	!	!	!	!	!	!	!	!	!	!	!	!	!	!	!	!LO:TX:a:rj:i:t=Solo 	!	!	!	!	!	!	!
8ryy	.	8ryy	.	8ryy	.	8ryy	.	8ryy	.	8ryy	8ryy	4ryy	8ryy	4ryy	8%7ryy	.	8ryy	4ryy	8ryy	4ryy	[4dd~	.	[4ddd~	.
8r'yy	.	8ryy	.	8ryy	.	8ryy	.	8ryy	.	8ryy	8ryy	.	8ryy	.	.	.	8ryy	.	8ryy	.	.	.	.	.
!	!	!	!	!LO:TX:a:t=arco	!	!LO:TX:a:t=arco	!	!LO:TX:a:t=arco	!	!	!	!	!	!	!	!	!	!	!	!	!	!	!	!
=	=.	=.	=.	=.	=.	=.	=.	=.	=.	=.	=.	=.	=.	=.	=.	=.	=.	=.	=.	=.	=.	=.	=.	=.
8ryy	.	8ryy	.	8ryy	.	8ryy	.	8ryy	.	8ryy	8ryy	.	8ryy	.	.	.	8ryy	.	8ryy	.	4dd]	.	4ddd]	.
8ryy	.	8ryy	.	8ryy	.	8ryy	.	8ryy	.	8ryy	8ryy	.	8ryy	.	.	.	8ryy	.	8ryy	4ryy	.	.	.	.
8r'yy	.	8ryy	.	8ryy	.	8ryy	.	8ryy	.	8ryy	8ryy	.	8ryy	.	.	.	8ryy	.	8ryy	.	8r	.	8r	.
=	=.	=.	=.	=.	=.	=.	=.	=.	=.	=.	=.	=.	=.	=.	=.	=.	=.	=.	=.	=.	=.	=.	=.	=.
8ryy	.	8ryy	.	8ryy	.	8ryy	.	8ryy	.	8ryy	8ryy	.	8ryy	.	.	.	8ryy	.	8ryy	.	4r	.	4r	.
8ryy	.	8ryy	.	8ryy	.	8ryy	.	8ryy	.	8ryy	8ryy	.	8ryy	.	.	.	8ryy	.	8ryy	4ryy	.	.	.	.
=	=	=	=	=	=	=	=	=	=	=	=	=	=	=	=	=	=	=	=	=	=	=	=	=
*-	*-	*-	*-	*-	*-	*-	*-	*-	*-	*-	*-	*-	*-	*-	*-	*-	*-	*-	*-	*-	*-	*-	*-	*-
!!!system-decoration: [(s1,s2,s3)][(s4)][(s5,s6)][({(s7,s8)})][(s9,s10,s11,s12,s13)]
